gtk/icon/16x16/apps/brave.svg

<svg xmlns="http://www.w3.org/2000/svg" width="16" height="16" version="1.1" viewBox="0 0 16 16">
 <path style="fill:#ee5132" d="M 5.4169917,-5.9999977e-8 4.0427093,1.2263598 C 4.0244784,1.2322559 3.8902072,1.1224154 3.7437426,1.0802661 3.3511789,0.96730375 2.85275,0.98658495 2.5141217,1.1372974 2.2926022,1.2358826 2.2067318,1.3052553 1.679908,1.8122972 c -0.5678345,0.5465 -0.6799066,0.6776415 -0.6799081,0.7937499 0,0.030068 0.2051894,0.3233827 0.3061997,0.553125 L 1.4894374,3.5771404 1.2539609,4.209953 C 1.124488,4.5579609 1.0127536,4.8617984 1.004822,4.885734 0.9847361,4.94672 2.8231067,12.02579 2.9191735,12.249215 c 0.1743971,0.405578 0.4485604,0.769288 0.8036737,1.067187 0.3206448,0.268978 3.5748245,2.444628 3.8970147,2.605468 0.095359,0.04761 0.248972,0.07511 0.3801379,0.07813 0.1311689,-0.003 0.2847785,-0.03052 0.3801375,-0.07813 0.3221902,-0.16084 3.5763697,-2.336492 3.8970147,-2.605468 0.355114,-0.297899 0.629277,-0.661609 0.803674,-1.067187 0.09606,-0.223425 1.934438,-7.302495 1.914353,-7.363481 -0.0079,-0.023936 -0.119667,-0.3277731 -0.24914,-0.675781 L 14.510562,3.5771404 14.693799,3.1591721 C 14.794815,2.9294298 15,2.6361171 15,2.6060471 14.999999,2.4899383 14.887933,2.3587972 14.320093,1.8122972 13.793268,1.3052553 13.707397,1.2358826 13.485878,1.1372974 13.14725,0.98658495 12.648821,0.96730375 12.256256,1.0802661 12.109793,1.1224154 11.97552,1.232256 11.957289,1.2263598 L 10.583008,-5.9999977e-8 H 7.9999998 Z"/>
 <path d="m 8.5685354,12.568913 c 0,0 0.6140259,-0.462562 1.1606756,-0.909541 0.307533,-0.251537 0.356002,-0.315461 0.305744,-0.404501 -0.040238,-0.07111 -1.032388,-0.628766 -1.5067192,-0.84679 -0.4989148,-0.22922 -0.5513274,-0.229598 -1.0352964,-0.0038 -0.4339809,0.201229 -1.4103966,0.75287 -1.4923351,0.843158 -0.084603,0.09305 -0.042001,0.178534 0.1712226,0.343452 0.4392462,0.339669 1.2813425,0.992643 1.2813425,0.992643 0.5725874,0.557503 0.5281255,0.55807 1.1153656,-0.01513 z M 6.2668927,10.574322 C 6.8623767,10.254701 6.9514003,10.188393 7.4066128,9.7277214 7.7892987,9.3405064 7.8601133,9.2252914 7.8056668,9.0785674 7.7872458,9.0290174 7.4996658,8.7260384 7.1666445,8.4051304 6.3795323,7.6470404 6.4124832,7.9540284 6.7119877,7.1311824 6.8898449,6.642558 6.936279,6.6792483 6.9356473,6.5437968 6.9345773,6.3391632 6.8682283,6.1855935 6.7346449,6.0794185 6.6804789,6.0362975 6.2048751,5.8172909 5.6777522,5.5923831 5.150629,5.3677022 4.7223643,5.1688181 4.726053,5.1506242 4.734453,5.1090172 5.3157782,5.0367708 5.7377791,5.0246668 l 0.3192095,-0.00757 0.5867952,0.2341371 c 0.5120015,0.2042553 0.5924082,0.2462411 0.630824,0.329078 0.024208,0.052199 0.043692,0.1225532 0.043291,0.1562175 -3.584e-4,0.034047 -0.095297,0.5190783 -0.2108673,1.078927 -0.2024322,0.980501 -0.2081362,0.819858 -0.1555102,0.879773 0.083495,0.09494 0.9020047,0.315461 1.1575384,0.293523 0.2918884,-0.02648 0.8881482,-0.228842 0.9483718,-0.296927 0.048681,-0.05523 0.039452,0.08246 -0.1588161,-0.8760664 C 8.7828442,6.2559103 8.6877974,5.7704256 8.6874003,5.736837 8.6870421,5.702794 8.7066154,5.6328181 8.7310088,5.5802412 8.7694617,5.4974042 8.8450286,5.4565533 9.3010286,5.2746148 10.036161,4.9807141 10.021216,4.9833618 10.68922,5.0510687 c 0.311493,0.03026 0.578837,0.070733 0.594098,0.086998 0.01638,0.018912 -0.0022,0.042742 -0.0456,0.061277 -0.04034,0.018912 -0.470087,0.2016068 -0.954984,0.4094933 C 9.7978426,5.8164966 9.3501872,6.0243074 9.2879502,6.0702649 9.1416656,6.1784445 9.0706604,6.3323925 9.0696656,6.5444398 c -7.16e-4,0.1339007 0.045488,0.096076 0.2185229,0.5691156 0.1206279,0.329835 0.2193211,0.630544 0.2193211,0.668331 0,0.152814 -0.099828,0.07641 -0.6531904,0.608114 -0.3179272,0.305626 -0.6001403,0.600435 -0.6271383,0.655395 -0.027007,0.05485 -0.042428,0.138818 -0.034269,0.186477 0.013995,0.08132 0.3947381,0.501976 0.7825959,0.8643416 0.1628482,0.152056 1.1494012,0.857607 1.3074482,0.886203 0.132358,0.0227 0.27382,-0.201608 0.505326,-0.420842 0.226992,-0.214846 0.362277,-0.429995 0.454253,-0.7221566 0.08626,-0.273853 0.06457,-0.458704 -0.106039,-0.902695 -0.130187,-0.338912 -0.164747,-0.524898 -0.121074,-0.651915 0.01002,-0.03026 0.362307,-0.410137 0.782825,-0.846525 C 12.71427,6.4877022 12.932894,6.317376 12.983114,6.1475793 13.038894,5.9592105 12.999534,5.7105864 12.874374,5.4607897 12.574932,4.8631916 11.33168,2.9922885 11.22607,2.9922885 10.682087,3.0917684 10.226839,3.391532 9.6536728,3.4925249 9.6086459,3.4926006 9.4171224,3.3590025 9.2280584,3.2931869 8.420807,3.0132814 8.1589774,2.9920994 8.0026744,2.9920994 c -0.1563007,0 -0.4181329,0.022695 -1.225384,0.3010875 -0.1890648,0.065437 -0.382675,0.199338 -0.4302419,0.199338 C 5.7823862,3.3990969 5.3638088,3.0683169 4.7792637,2.9921372 4.6881317,3.0609792 3.8795546,4.3284587 3.5447791,4.8822176 3.1511013,5.5334138 3.0398435,5.6171585 3.0078242,5.8650639 c -0.044802,0.3468558 0.069105,0.4053334 1.2451973,1.6234515 0.3956123,0.409759 0.7273649,0.768454 0.7372247,0.797125 0.044127,0.128606 0.00927,0.321892 -0.1190127,0.661258 -0.1761778,0.465778 -0.1919584,0.59514 -0.1069239,0.876369 0.092467,0.3056266 0.2492217,0.5531166 0.4859922,0.7666006 0.2201721,0.198582 0.3053239,0.39739 0.4352314,0.400681 0.046491,0.0012 0.3081154,-0.267801 0.5813837,-0.414487 z" style="fill:#ffffff"/>
</svg>

<svg xmlns="http://www.w3.org/2000/svg" width="16" height="16" version="1.1">
 <path style="fill:#ee5132" d="M 5.417,0 4.0427,1.2264 C 4.0245,1.2323 3.8902,1.1224 3.7437,1.0803 3.3512,0.9673 2.8527,0.98658 2.5141,1.1373 2.2926,1.2359 2.2067,1.3053 1.6799,1.8123 1.1121,2.3588 1,2.4899 1,2.606 1,2.6361 1.2052,2.9294 1.3062,3.1592 L 1.4894,3.5771 1.254,4.21 C 1.1245,4.558 1.0128,4.8618 1.0048,4.8857 0.98474,4.9467 2.8231,12.026 2.9192,12.249 3.0936,12.655 3.3677,13.019 3.7228,13.316 4.0435,13.585 7.2977,15.761 7.6199,15.922 7.7152,15.969 7.8688,15.997 8,16 8.1312,15.997 8.2848,15.969 8.3801,15.922 8.7023,15.761 11.957,13.585 12.277,13.316 12.632,13.019 12.906,12.655 13.081,12.249 13.177,12.026 15.015,4.9467 14.995,4.8857 14.987,4.8618 14.876,4.558 14.746,4.21 L 14.511,3.5771 14.694,3.1592 C 14.795,2.9294 15,2.6361 15,2.606 15,2.4899 14.888,2.3588 14.32,1.8123 13.793,1.3053 13.707,1.2359 13.486,1.1373 13.147,0.98658 12.649,0.9673 12.256,1.0803 12.11,1.1224 11.976,1.2323 11.957,1.2264 L 10.583,0 H 8 Z"/>
 <path style="fill:#ffffff" d="M 8.5685,12.569 C 8.5685,12.569 9.1826,12.106 9.7292,11.659 10.037,11.408 10.085,11.344 10.035,11.255 9.9947,11.184 9.0026,10.626 8.5282,10.408 8.0293,10.179 7.9769,10.178 7.4929,10.404 7.059,10.606 6.0825,11.157 6.0006,11.247 5.916,11.34 5.9586,11.426 6.1718,11.591 6.6111,11.931 7.4532,12.584 7.4532,12.584 8.0258,13.141 7.9813,13.142 8.5685,12.568 Z M 6.2669,10.574 C 6.8624,10.255 6.9514,10.188 7.4066,9.7277 7.7893,9.3405 7.8601,9.2253 7.8057,9.0786 7.7872,9.029 7.4997,8.726 7.1666,8.4051 6.3795,7.647 6.4125,7.954 6.712,7.1312 6.8898,6.6426 6.9363,6.6792 6.9356,6.5438 6.9346,6.3392 6.8682,6.1856 6.7346,6.0794 6.6805,6.0363 6.2049,5.8173 5.6778,5.5924 5.1506,5.3677 4.7224,5.1688 4.7261,5.1506 4.7345,5.109 5.3158,5.0368 5.7378,5.0247 L 6.057,5.0171 6.6438,5.2512 C 7.1558,5.4555 7.2362,5.4975 7.2746,5.5803 7.2988,5.6325 7.3183,5.7029 7.3179,5.7365 7.3175,5.7706 7.2226,6.2556 7.107,6.8155 6.9046,7.796 6.8989,7.6353 6.9515,7.6952 7.035,7.7902 7.8535,8.0107 8.1091,7.9888 8.4009,7.9623 8.9972,7.7599 9.0574,7.6918 9.1061,7.6366 9.0969,7.7743 8.8986,6.8158 8.7828,6.2559 8.6878,5.7704 8.6874,5.7368 8.687,5.7028 8.7066,5.6328 8.731,5.5802 8.7695,5.4974 8.845,5.4566 9.301,5.2746 10.036,4.9807 10.021,4.9834 10.689,5.0511 11.001,5.0813 11.268,5.1218 11.283,5.1381 11.3,5.157 11.281,5.1808 11.238,5.1993 11.197,5.2183 10.768,5.401 10.283,5.6088 9.7978,5.8165 9.3502,6.0243 9.288,6.0703 9.1417,6.1784 9.0707,6.3324 9.0697,6.5444 9.0689,6.6783 9.1152,6.6405 9.2882,7.1136 9.4088,7.4434 9.5075,7.7441 9.5075,7.7819 9.5075,7.9347 9.4077,7.8583 8.8543,8.39 8.5364,8.6956 8.2542,8.9904 8.2272,9.0454 8.2002,9.1002 8.1848,9.1842 8.1929,9.2319 8.2069,9.3132 8.5876,9.7338 8.9755,10.096 9.1384,10.248 10.125,10.954 10.283,10.982 10.415,11.005 10.557,10.781 10.788,10.562 11.015,10.347 11.151,10.132 11.243,9.8394 11.329,9.5656 11.307,9.3807 11.136,8.9367 11.006,8.5978 10.972,8.4118 11.015,8.2848 11.025,8.2545 11.378,7.8747 11.798,7.4383 12.714,6.4877 12.933,6.3174 12.983,6.1476 13.039,5.9592 13,5.7106 12.874,5.4608 12.575,4.8632 11.332,2.9923 11.226,2.9923 10.682,3.0918 10.227,3.3915 9.6537,3.4925 9.6086,3.4926 9.4171,3.359 9.2281,3.2932 8.4208,3.0133 8.159,2.9921 8.0027,2.9921 7.8464,2.9921 7.5845,3.0148 6.7773,3.2932 6.5882,3.3586 6.3946,3.4925 6.347,3.4925 5.7824,3.3991 5.3638,3.0683 4.7793,2.9921 4.6881,3.061 3.8796,4.3285 3.5448,4.8822 3.1511,5.5334 3.0398,5.6172 3.0078,5.8651 2.963,6.2119 3.0769,6.2704 4.253,7.4885 4.6486,7.8983 4.9804,8.257 4.9902,8.2856 5.0344,8.4142 4.9995,8.6075 4.8712,8.9469 4.6951,9.4127 4.6793,9.542 4.7643,9.8233 4.8568,10.129 5.0135,10.376 5.2503,10.59 5.4705,10.788 5.5556,10.987 5.6855,10.991 5.732,10.992 5.9936,10.723 6.2669,10.576 Z"/>
</svg>
